**kern	**silbe	**harmony	**phrase	**leadinstrument	**rhyme	**timestamp	**harte
*ICvox	*	*M4/4	*	*	*	*	*M4/4
*VRlead	*	*	*	*	*	*	*
*Hstimme	*	*	*	*	*	*	*
*A:	*	*A:	*	*	*	*	*A:
*M4/4	*	*	*	*	*	*	*
*clefF4	*	*	*	*	*	*	*
r;	.	1r;	.	r	.	0	N.C.
=1	=1	=1	=1	=1	=1	=1	=1
*>Letter>A	*>Letter>A	*>Letter>A	*>Letter>A	*>Letter>A	*>Letter>A	*>Letter>A	*>Letter>A
*>Label>Intro	*>Label>Intro	*>Label>Intro	*>Label>Intro	*>Label>Intro	*>Label>Intro	*>Label>Intro	*>Label>Intro
1r	.	1AM	newline	synthesizer	.	0.372	A:maj/5
=2	=2	=2	=2	=2	=2	=2	=2
1r	.	1AM	.	synthesizer	.	2.452	A:maj/5
=3	=3	=3	=3	=3	=3	=3	=3
1r	.	2DM	.	synthesizer	.	4.532	D:maj/3
.	.	2AM	.	synthesizer	.	5.573	A:maj/5
=4	=4	=4	=4	=4	=4	=4	=4
1r	.	1EM	.	synthesizer	.	6.613	E:maj
=5	=5	=5	=5	=5	=5	=5	=5
1r	.	4EM	newline	synthesizer	.	8.693	E:sus4/2
.	.	2.EM	.	synthesizer	.	9.209	E:maj
=6	=6	=6	=6	=6	=6	=6	=6
1r	.	4EM	.	synthesizer	.	10.756	E:sus4/2
.	.	2.EM	.	synthesizer	.	11.271	E:maj
=7	=7	=7	=7	=7	=7	=7	=7
1r	.	2AM	.	synthesizer	.	12.818	A:maj/5
.	.	2AM	.	synthesizer	.	13.849	A:maj/3
=8	=8	=8	=8	=8	=8	=8	=8
2r	.	1DM	.	synthesizer	.	14.88	D:maj
4r	.	.	.	.	.	.	.
8r	.	.	.	.	.	.	.
16E	i	.	.	.	.	.	.
16E	was	.	.	.	.	.	.
=9	=9	=9	=9	=9	=9	=9	=9
*>Letter>A	*>Letter>A	*>Letter>A	*>Letter>A	*>Letter>A	*>Letter>A	*>Letter>A	*>Letter>A
*>Label>Verse	*>Label>Verse	*>Label>Verse	*>Label>Verse	*>Label>Verse	*>Label>Verse	*>Label>Verse	*>Label>Verse
8B	eight	1AM	newline	voice	.	16.942	A:maj/5
4c#	years	.	.	.	.	.	.
[8c#	old	.	.	.	.	.	.
8c#]	_	.	.	.	.	.	.
4r	.	.	.	.	.	.	.
8E	and	.	.	.	.	.	.
=10	=10	=10	=10	=10	=10	=10	=10
8B	run-	1AM	.	voice	.	19.011	A:maj/5
4c#	-ning	.	.	.	.	.	.
[8c#	with	.	.	.	.	.	.
8c#]	_	.	.	.	.	.	.
4r	.	.	.	.	.	.	.
8c#	a	.	.	.	.	.	.
=11	=11	=11	=11	=11	=11	=11	=11
2d	dime	2DM	.	voice	.	21.079	D:maj/3
8c#	in	2AM	.	voice	.	22.113	A:maj/5
4c#	my	.	.	.	.	.	.
8B	_	.	.	.	.	.	.
=12	=12	=12	=12	=12	=12	=12	=12
2B	hand	1EM	.	voice	A	23.148	E:maj
4r	.	.	.	.	.	.	.
16r	.	.	.	.	.	.	.
16E	in	.	.	.	.	.	.
16E	to	.	.	.	.	.	.
16E	the	.	.	.	.	.	.
=13	=13	=13	=13	=13	=13	=13	=13
8A	bus	4EM	newline	voice	.	25.216	E:sus4/2
4B	stop	.	.	.	.	.	.
.	.	2.EM	.	voice	.	25.73	E:maj
8B	to	.	.	.	.	.	.
4B	pick	.	.	.	.	.	.
4r	.	.	.	.	.	.	.
=14	=14	=14	=14	=14	=14	=14	=14
8A	up	4EM	.	voice	.	27.273	E:sus4/2
4B	a	.	.	.	.	.	.
.	.	2.EM	.	voice	.	27.788	E:maj
[8B	pa-	.	.	.	.	.	.
8B]	_	.	.	.	.	.	.
8B	-per	.	.	.	.	.	.
8r	.	.	.	.	.	.	.
8B	for	.	.	.	.	.	.
=15	=15	=15	=15	=15	=15	=15	=15
2c#	my	2AM	.	voice	.	29.331	A:maj/5
8B	old	2AM	.	voice	.	30.359	A:maj/3
4.A	_	.	.	.	.	.	.
=16	=16	=16	=16	=16	=16	=16	=16
8A	man	1DM	.	voice	A	31.388	D:maj
4.F#	_	.	.	.	.	.	.
4r	.	.	.	.	.	.	.
8r	.	.	.	.	.	.	.
8E	I'd	.	.	.	.	.	.
=17	=17	=17	=17	=17	=17	=17	=17
8B	sit	1AM	newline	voice	.	33.446	A:maj/5
8c#	on	.	.	.	.	.	.
8c#	his	.	.	.	.	.	.
[8c#	lap	.	.	.	.	.	.
8c#]	_	.	.	.	.	.	.
4r	.	.	.	.	.	.	.
16E	in	.	.	.	.	.	.
16E	that	.	.	.	.	.	.
=18	=18	=18	=18	=18	=18	=18	=18
8B	big	1AM	.	voice	.	35.503	A:maj/5
4c#	old	.	.	.	.	.	.
8c#	Bu-	.	.	.	.	.	.
8c#	-ick	.	.	.	.	.	.
4r	.	.	.	.	.	.	.
[8d	steer	.	.	.	.	.	.
=19	=19	=19	=19	=19	=19	=19	=19
4d]	_	2DM	.	voice	.	37.56	D:maj/3
8d	as	.	.	.	.	.	.
8d	we	.	.	.	.	.	.
4c#	drove	2AM	.	voice	.	38.588	A:maj/5
4B	through	.	.	.	.	.	.
=20	=20	=20	=20	=20	=20	=20	=20
2B	town	1EM	.	voice	B	39.617	E:maj
4r	.	.	.	.	.	.	.
8r	.	.	.	.	.	.	.
8E	He'd	.	.	.	.	.	.
=21	=21	=21	=21	=21	=21	=21	=21
8A	tou-	4EM	newline	voice	.	41.674	E:sus4/2
8B	-sle	.	.	.	.	.	.
8B	my	2.EM	.	voice	.	42.194	E:maj
[8B	hair	.	.	.	.	.	.
8B]	_	.	.	.	.	.	.
4r	.	.	.	.	.	.	.
8E	and	.	.	.	.	.	.
=22	=22	=22	=22	=22	=22	=22	=22
8A	say	4EM	.	voice	.	43.754	E:sus4/2
4B	\\\"Son	.	.	.	.	.	.
.	.	2.EM	.	voice	.	44.274	E:maj
[8B	take	.	.	.	.	.	.
4B]	_	.	.	.	.	.	.
8r	.	.	.	.	.	.	.
8B	a	.	.	.	.	.	.
=23	=23	=23	=23	=23	=23	=23	=23
2c#	good	2AM	.	voice	.	45.835	A:maj/5
8B	look	2AM	.	voice	.	46.875	A:maj/3
4.A	a-	.	.	.	.	.	.
=24	=24	=24	=24	=24	=24	=24	=24
8A	-round	1DM	.	voice	B	47.915	D:maj
4.F#	_	.	.	.	.	.	.
4r	.	.	.	.	.	.	.
8r	.	.	.	.	.	.	.
16AA	this	.	.	.	.	.	.
16AA	is	.	.	.	.	.	.
=25	=25	=25	=25	=25	=25	=25	=25
*>Letter>A	*>Letter>A	*>Letter>A	*>Letter>A	*>Letter>A	*>Letter>A	*>Letter>A	*>Letter>A
*>Label>Chorus	*>Label>Chorus	*>Label>Chorus	*>Label>Chorus	*>Label>Chorus	*>Label>Chorus	*>Label>Chorus	*>Label>Chorus
8C#	your	1AM	newline	voice	.	49.995	A:maj/5
4E	home-	.	.	.	.	.	.
[8E	-town	.	.	.	B	.	.
2E]	_	.	.	.	.	.	.
=26	=26	=26	=26	=26	=26	=26	=26
2r	.	1AM	.	voice	.	52.052	A:maj/5
4r	.	.	.	.	.	.	.
8r	.	.	.	.	.	.	.
16c#	this	.	.	.	.	.	.
16c#	is	.	.	.	.	.	.
=27	=27	=27	=27	=27	=27	=27	=27
2d	your	2DM	.	voice	.	54.109	D:maj/3
8c#	home-	2AM	.	voice	.	55.138	A:maj/5
4.B	_	.	.	.	.	.	.
=28	=28	=28	=28	=28	=28	=28	=28
2B	-town	1EM	.	voice	B	56.166	E:maj
4r	.	.	.	.	.	.	.
8r	.	.	.	.	.	.	.
16E	this	.	.	.	.	.	.
16E	is	.	.	.	.	.	.
=29	=29	=29	=29	=29	=29	=29	=29
8A	your	4EM	newline	voice	.	58.223	E:sus4/2
4B	home-	.	.	.	.	.	.
.	.	2.EM	.	voice	.	58.739	E:maj
[8B	-town	.	.	.	B	.	.
2B]	_	.	.	.	.	.	.
=30	=30	=30	=30	=30	=30	=30	=30
2r	.	4EM	.	voice	.	60.287	E:sus4/2
.	.	2.EM	.	voice	.	60.803	E:maj
4r	.	.	.	.	.	.	.
8r	.	.	.	.	.	.	.
16B	this	.	.	.	.	.	.
16B	is	.	.	.	.	.	.
=31	=31	=31	=31	=31	=31	=31	=31
2c#	your	2AM	.	voice	.	62.351	A:maj/5
8B	home-	2AM	.	voice	.	63.383	A:maj/3
4.A	_	.	.	.	.	.	.
=32	=32	=32	=32	=32	=32	=32	=32
8A	-town	1DM	.	voice	B	64.415	D:maj
4.F#	_	.	.	.	.	.	.
2r	.	.	.	.	.	.	.
=33	=33	=33	=33	=33	=33	=33	=33
*>Letter>B	*>Letter>B	*>Letter>B	*>Letter>B	*>Letter>B	*>Letter>B	*>Letter>B	*>Letter>B
*>Label>Trans	*>Label>Trans	*>Label>Trans	*>Label>Trans	*>Label>Trans	*>Label>Trans	*>Label>Trans	*>Label>Trans
1r	.	1AM	newline	synthesizer	.	66.479	A:maj/5
=34	=34	=34	=34	=34	=34	=34	=34
2r	.	1AM	.	synthesizer	.	68.558	A:maj/5
4r	.	.	.	.	.	.	.
8r	.	.	.	.	.	.	.
8E	in	.	.	.	.	.	.
=35	=35	=35	=35	=35	=35	=35	=35
*>Letter>A	*>Letter>A	*>Letter>A	*>Letter>A	*>Letter>A	*>Letter>A	*>Letter>A	*>Letter>A
*>Label>Verse	*>Label>Verse	*>Label>Verse	*>Label>Verse	*>Label>Verse	*>Label>Verse	*>Label>Verse	*>Label>Verse
8B	six-	1AM	newline	voice	.	70.636	A:maj
4c#	-ty-	.	.	.	.	.	.
[8c#	-five	.	.	.	C	.	.
8c#]	_	.	.	.	.	.	.
8E	ten-	.	.	.	.	.	.
8E	-sion	.	.	.	.	.	.
8E	was	.	.	.	.	.	.
=36	=36	=36	=36	=36	=36	=36	=36
8r	.	1AM	.	voice	.	72.681	A:maj
8B	run-	.	.	.	.	.	.
8c#	-ning	.	.	.	.	.	.
[8c#	high	.	.	.	C	.	.
8c#]	_	.	.	.	.	.	.
4r	.	.	.	.	.	.	.
8c#	at	.	.	.	.	.	.
=37	=37	=37	=37	=37	=37	=37	=37
2d	my	2DM	.	voice	.	74.726	D:maj
4.c#	high-	2AM	.	voice	.	75.749	A:maj
[8B	-school	.	.	.	D	.	.
=38	=38	=38	=38	=38	=38	=38	=38
2B]	_	1EM	.	voice	.	76.772	E:maj
4r	.	.	.	.	.	.	.
8r	.	.	.	.	.	.	.
16E	there	.	.	.	.	.	.
16E	was	.	.	.	.	.	.
=39	=39	=39	=39	=39	=39	=39	=39
8A	lots	1EM	newline	voice	.	78.817	E:maj
4B	of	.	.	.	.	.	.
[8B	fights	.	.	.	C	.	.
8B]	_	.	.	.	.	.	.
8r	.	.	.	.	.	.	.
16r	.	.	.	.	.	.	.
16E	be	.	.	.	.	.	.
16E	tween	.	.	.	.	.	.
16E	the	.	.	.	.	.	.
=40	=40	=40	=40	=40	=40	=40	=40
8A	black	1EM	.	voice	.	80.853	E:maj
4B	and	.	.	.	.	.	.
[8B	white	.	.	.	C	.	.
4B]	_	.	.	.	.	.	.
8r	.	.	.	.	.	.	.
16B	there	.	.	.	.	.	.
16B	was	.	.	.	.	.	.
=41	=41	=41	=41	=41	=41	=41	=41
8c#	no-	1AM	.	voice	.	82.89	A:maj
4.c#	-thing	.	.	.	.	.	.
8B	you	.	.	.	.	.	.
4.A	_	.	.	.	.	.	.
=42	=42	=42	=42	=42	=42	=42	=42
8A	could	1DM	.	voice	.	84.926	D:maj
8F#	do	.	.	.	D	.	.
2r	.	.	.	.	.	.	.
8r	.	.	.	.	.	.	.
8E	Two	.	.	.	.	.	.
=43	=43	=43	=43	=43	=43	=43	=43
8B	cars	1AM	newline	voice	.	86.963	A:maj
8c#	at	.	.	.	.	.	.
8c#	a	.	.	.	.	.	.
[8c#	light	.	.	.	C	.	.
8c#]	_	.	.	.	.	.	.
4r	.	.	.	.	.	.	.
16E	on	.	.	.	.	.	.
16E	a	.	.	.	.	.	.
=44	=44	=44	=44	=44	=44	=44	=44
8B	Sa-	1AM	.	voice	.	89.003	A:maj
8c#	-tur-	.	.	.	.	.	.
8c#	-day	.	.	.	.	.	.
4c#	night	.	.	.	C	.	.
4r	.	.	.	.	.	.	.
16c#	in	.	.	.	.	.	.
16d	a	.	.	.	.	.	.
=45	=45	=45	=45	=45	=45	=45	=45
8d	back	2DM	.	voice	.	91.043	D:maj
4.d	seat	.	.	.	.	.	.
8c#	there	2AM	.	voice	.	92.063	A:maj
4c#	was	.	.	.	.	.	.
8B	a	.	.	.	.	.	.
=46	=46	=46	=46	=46	=46	=46	=46
2B	gun	1EM	.	voice	.	93.083	E:maj
2r	.	.	.	.	.	.	.
=47	=47	=47	=47	=47	=47	=47	=47
8A	words	1EM	newline	voice	.	95.123	E:maj
4B	were	.	.	.	.	.	.
[8B	passed	.	.	.	E	.	.
8B]	_	.	.	.	.	.	.
4r	.	.	.	.	.	.	.
16E	and	.	.	.	.	.	.
16E	a	.	.	.	.	.	.
=48	=48	=48	=48	=48	=48	=48	=48
8A	shot-	1EM	.	voice	.	97.148	E:maj
4B	-gun	.	.	.	.	.	.
[8B	blast	.	.	.	E	.	.
8B]	_	.	.	.	.	.	.
4r	.	.	.	.	.	.	.
16B	trou-	.	.	.	.	.	.
16B	-bled	.	.	.	.	.	.
=49	=49	=49	=49	=49	=49	=49	=49
2c#	times	1AM	.	voice	.	99.173	A:maj
8B	had	.	.	.	.	.	.
4.A	_	.	.	.	.	.	.
=50	=50	=50	=50	=50	=50	=50	=50
8A	come	1DM	.	voice	.	101.198	D:maj
4.F#	_	.	.	.	.	.	.
4r	.	.	.	.	.	.	.
8r	.	.	.	.	.	.	.
8AA	to	.	.	.	.	.	.
=51	=51	=51	=51	=51	=51	=51	=51
*>Letter>A	*>Letter>A	*>Letter>A	*>Letter>A	*>Letter>A	*>Letter>A	*>Letter>A	*>Letter>A
*>Label>Chorus	*>Label>Chorus	*>Label>Chorus	*>Label>Chorus	*>Label>Chorus	*>Label>Chorus	*>Label>Chorus	*>Label>Chorus
8C#	my	1AM	newline	voice	.	103.224	A:maj
4E	home-	.	.	.	.	.	.
[8E	-town	.	.	.	B	.	.
2E]	_	.	.	.	.	.	.
=52	=52	=52	=52	=52	=52	=52	=52
2r	.	1AM	.	voice	.	105.268	A:maj
4r	.	.	.	.	.	.	.
8r	.	.	.	.	.	.	.
8c#	to	.	.	.	.	.	.
=53	=53	=53	=53	=53	=53	=53	=53
2d	my	2DM	.	voice	.	107.312	D:maj
8c#	home-	2AM	.	voice	.	108.334	A:maj
4.B	_	.	.	.	.	.	.
=54	=54	=54	=54	=54	=54	=54	=54
2B	-town	1EM	.	voice	B	109.356	E:maj
4r	.	.	.	.	.	.	.
8r	.	.	.	.	.	.	.
8E	to	.	.	.	.	.	.
=55	=55	=55	=55	=55	=55	=55	=55
8A	my	1EM	newline	voice	.	111.4	E:maj
4B	home-	.	.	.	.	.	.
8B	-town	.	.	.	B	.	.
8A	_	.	.	.	.	.	.
8G#	_	.	.	.	.	.	.
4r	.	.	.	.	.	.	.
=56	=56	=56	=56	=56	=56	=56	=56
2r	.	1EM	.	voice	.	113.442	E:maj
4r	.	.	.	.	.	.	.
8r	.	.	.	.	.	.	.
8B	to	.	.	.	.	.	.
=57	=57	=57	=57	=57	=57	=57	=57
2c#	my	1AM	.	voice	.	115.483	A:maj
8B	home-	.	.	.	.	.	.
4.A	_	.	.	.	.	.	.
=58	=58	=58	=58	=58	=58	=58	=58
8A	-town	1DM	.	voice	B	117.525	D:maj
4.F#	_	.	.	.	.	.	.
2r	.	.	.	.	.	.	.
=59	=59	=59	=59	=59	=59	=59	=59
*>Letter>B	*>Letter>B	*>Letter>B	*>Letter>B	*>Letter>B	*>Letter>B	*>Letter>B	*>Letter>B
*>Label>Trans	*>Label>Trans	*>Label>Trans	*>Label>Trans	*>Label>Trans	*>Label>Trans	*>Label>Trans	*>Label>Trans
1r	.	1AM	newline	synthesizer	.	119.567	A:maj
=60	=60	=60	=60	=60	=60	=60	=60
2r	.	1AM	.	synthesizer	.	121.615	A:maj
4r	.	.	.	.	.	.	.
8r	.	.	.	.	.	.	.
8E	Now	.	.	.	.	.	.
=61	=61	=61	=61	=61	=61	=61	=61
*>Letter>C	*>Letter>C	*>Letter>C	*>Letter>C	*>Letter>C	*>Letter>C	*>Letter>C	*>Letter>C
*>Label>Bridge	*>Label>Bridge	*>Label>Bridge	*>Label>Bridge	*>Label>Bridge	*>Label>Bridge	*>Label>Bridge	*>Label>Bridge
4B	Main	1F#m	newline	voice	.	123.663	F#:min
4A	Street's	.	.	.	.	.	.
4A	white	.	.	.	.	.	.
4A	washed	.	.	.	.	.	.
=62	=62	=62	=62	=62	=62	=62	=62
8B	win-	1F#m	.	voice	.	125.683	F#:min
8A	-dows	.	.	.	.	.	.
2r	.	.	.	.	.	.	.
8r	.	.	.	.	.	.	.
8E	and	.	.	.	.	.	.
=63	=63	=63	=63	=63	=63	=63	=63
8B	va-	1AM	.	voice	.	127.703	A:maj
4c#	-cant	.	.	.	.	.	.
8c#	stores	.	.	.	F	.	.
8B	_	.	.	.	.	.	.
[8A	_	.	.	.	.	.	.
4A]	_	.	.	.	.	.	.
=64	=64	=64	=64	=64	=64	=64	=64
2r	.	1AM	.	voice	.	129.723	A:maj
4r	.	.	.	.	.	.	.
8r	.	.	.	.	.	.	.
8A	seems	.	.	.	.	.	.
=65	=65	=65	=65	=65	=65	=65	=65
8B	like	1F#m	newline	voice	.	131.742	F#:min
4A	there	.	.	.	.	.	.
[8A	ain't	.	.	.	.	.	.
8A]	_	.	.	.	.	.	.
4A	no-	.	.	.	.	.	.
[8B	-bo-	.	.	.	.	.	.
=66	=66	=66	=66	=66	=66	=66	=66
8B]	_	1F#m	.	voice	.	133.788	F#:min
8A	-dy	.	.	.	.	.	.
4r	.	.	.	.	.	.	.
8A	wants	.	.	.	.	.	.
8A	to	.	.	.	.	.	.
8A	come	.	.	.	.	.	.
[8B	down	.	.	.	.	.	.
=67	=67	=67	=67	=67	=67	=67	=67
8B]	_	1AM	.	voice	.	135.833	A:maj
8c#	here	.	.	.	.	.	.
8c#	no	.	.	.	.	.	.
[8c#	more	.	.	.	F	.	.
4c#]	_	.	.	.	.	.	.
4r	.	.	.	.	.	.	.
=68	=68	=68	=68	=68	=68	=68	=68
2r	.	1AM	.	voice	.	137.878	A:maj
4r	.	.	.	.	.	.	.
8r	.	.	.	.	.	.	.
8A	They're	.	.	.	.	.	.
=69	=69	=69	=69	=69	=69	=69	=69
8B	clos-	1DM	newline	voice	.	139.923	D:maj
4A	-ing	.	.	.	.	.	.
[8A	down	.	.	.	.	.	.
8A]	_	.	.	.	.	.	.
4r	.	.	.	.	.	.	.
8A	the	.	.	.	.	.	.
=70	=70	=70	=70	=70	=70	=70	=70
8B	text-	1DM	.	voice	.	141.962	D:maj
4A	-ile	.	.	.	.	.	.
[8A	mill	.	.	.	.	.	.
8A]	_	.	.	.	.	.	.
4r	.	.	.	.	.	.	.
8B	a	.	.	.	.	.	.
=71	=71	=71	=71	=71	=71	=71	=71
16B	cross	1AM	.	voice	.	144.002	A:maj
16B	the	.	.	.	.	.	.
[8c#	rail-	.	.	.	.	.	.
8c#]	_	.	.	.	.	.	.
8c#	-road	.	.	.	.	.	.
16c#	tracks	.	.	.	G	.	.
16B	_	.	.	.	.	.	.
[8A	_	.	.	.	.	.	.
4A]	_	.	.	.	.	.	.
=72	=72	=72	=72	=72	=72	=72	=72
2r	.	1AM	.	voice	.	146.041	A:maj
4r	.	.	.	.	.	.	.
8A	Fore-	.	.	.	.	.	.
8A	-man	.	.	.	.	.	.
=73	=73	=73	=73	=73	=73	=73	=73
8B	says	1DM	newline	voice	.	148.08	D:maj
4A	\\\"These	.	.	.	.	.	.
[8A	jobs	.	.	.	.	.	.
4.A]	_	.	.	.	.	.	.
8A	are	.	.	.	.	.	.
=74	=74	=74	=74	=74	=74	=74	=74
8B	go-	1DM	.	voice	.	150.133	D:maj
4A	-ing	.	.	.	.	.	.
[8A	boys	.	.	.	.	.	.
8A]	_	.	.	.	.	.	.
4r	.	.	.	.	.	.	.
8B	and	.	.	.	.	.	.
=75	=75	=75	=75	=75	=75	=75	=75
8c#	they	1AM	.	voice	.	152.186	A:maj
4.c#	ain't	.	.	.	.	.	.
8d	com-	.	.	.	.	.	.
8c#	-ing	.	.	.	.	.	.
4B	_	.	.	.	.	.	.
=76	=76	=76	=76	=76	=76	=76	=76
2B	back	1EM	.	voice	G	154.24	E:maj
4r	.	.	.	.	.	.	.
8r	.	.	.	.	.	.	.
8E	to	.	.	.	.	.	.
=77	=77	=77	=77	=77	=77	=77	=77
*>Letter>A	*>Letter>A	*>Letter>A	*>Letter>A	*>Letter>A	*>Letter>A	*>Letter>A	*>Letter>A
*>Label>Chorus	*>Label>Chorus	*>Label>Chorus	*>Label>Chorus	*>Label>Chorus	*>Label>Chorus	*>Label>Chorus	*>Label>Chorus
8B	your	1AM	newline	voice	.	156.293	A:maj
4c#	home-	.	.	.	.	.	.
[8c#	-town	.	.	.	B	.	.
2c#]	_	.	.	.	.	.	.
=78	=78	=78	=78	=78	=78	=78	=78
2r	.	1AM	.	voice	.	158.324	A:maj
4r	.	.	.	.	.	.	.
8r	.	.	.	.	.	.	.
8c#	to	.	.	.	.	.	.
=79	=79	=79	=79	=79	=79	=79	=79
2d	your	2DM	.	voice	.	160.355	D:maj
8c#	home-	2AM	.	voice	.	161.371	A:maj
4.B	_	.	.	.	.	.	.
=80	=80	=80	=80	=80	=80	=80	=80
2B	-town	1EM	.	voice	B	162.386	E:maj
4r	.	.	.	.	.	.	.
8r	.	.	.	.	.	.	.
8E	to	.	.	.	.	.	.
=81	=81	=81	=81	=81	=81	=81	=81
8A	your	1EM	newline	voice	.	164.418	E:maj
4B	home-	.	.	.	.	.	.
[8B	-town	.	.	.	B	.	.
8B]	_	.	.	.	.	.	.
8A	_	.	.	.	.	.	.
8G#	_	.	.	.	.	.	.
8r	.	.	.	.	.	.	.
=82	=82	=82	=82	=82	=82	=82	=82
2r	.	1EM	.	voice	.	166.438	E:maj
4r	.	.	.	.	.	.	.
8r	.	.	.	.	.	.	.
8B	to	.	.	.	.	.	.
=83	=83	=83	=83	=83	=83	=83	=83
2c#	your	1AM	.	voice	.	168.459	A:maj
8B	home-	.	.	.	.	.	.
4.A	_	.	.	.	.	.	.
=84	=84	=84	=84	=84	=84	=84	=84
8A	-town	1DM	.	voice	B	170.48	D:maj
4.F#	_	.	.	.	.	.	.
2r	.	.	.	.	.	.	.
=85	=85	=85	=85	=85	=85	=85	=85
*>Letter>B	*>Letter>B	*>Letter>B	*>Letter>B	*>Letter>B	*>Letter>B	*>Letter>B	*>Letter>B
*>Label>Trans	*>Label>Trans	*>Label>Trans	*>Label>Trans	*>Label>Trans	*>Label>Trans	*>Label>Trans	*>Label>Trans
1r	.	1AM	newline	synthesizer	.	172.501	A:maj
=86	=86	=86	=86	=86	=86	=86	=86
2r	.	1AM	.	synthesizer	.	174.52	A:maj
4r	.	.	.	.	.	.	.
8r	.	.	.	.	.	.	.
8E	Last	.	.	.	.	.	.
=87	=87	=87	=87	=87	=87	=87	=87
*>Letter>A	*>Letter>A	*>Letter>A	*>Letter>A	*>Letter>A	*>Letter>A	*>Letter>A	*>Letter>A
*>Label>Verse	*>Label>Verse	*>Label>Verse	*>Label>Verse	*>Label>Verse	*>Label>Verse	*>Label>Verse	*>Label>Verse
8B	night	1AM	newline	voice	.	176.54	A:maj
8c#	me	.	.	.	.	.	.
8c#	and	.	.	.	.	.	.
[8c#	Kate	.	.	.	.	.	.
8c#]	_	.	.	.	.	.	.
4r	.	.	.	.	.	.	.
8E	we	.	.	.	.	.	.
=88	=88	=88	=88	=88	=88	=88	=88
8B	laid	1AM	.	voice	.	178.572	A:maj
4c#	in	.	.	.	.	.	.
[8c#	bed	.	.	.	.	.	.
8c#]	_	.	.	.	.	.	.
4r	.	.	.	.	.	.	.
[8d	talk-	.	.	.	.	.	.
=89	=89	=89	=89	=89	=89	=89	=89
8d]	_	2DM	.	voice	.	180.605	D:maj
8d	-in'	.	.	.	.	.	.
4d	'bout	.	.	.	.	.	.
8c#	get-	2AM	.	voice	.	181.621	A:maj
8c#	-ting	.	.	.	.	.	.
4B	_	.	.	.	.	.	.
=90	=90	=90	=90	=90	=90	=90	=90
2B	out	1EM	.	voice	B	182.637	E:maj
2r	.	.	.	.	.	.	.
=91	=91	=91	=91	=91	=91	=91	=91
8A	pack-	1EM	newline	voice	.	184.67	E:maj
4B	-ing	.	.	.	.	.	.
[8B	up	.	.	.	.	.	.
8B]	_	.	.	.	.	.	.
4r	.	.	.	.	.	.	.
8r	.	.	.	.	.	.	.
=92	=92	=92	=92	=92	=92	=92	=92
8A	our	1EM	.	voice	.	186.705	E:maj
[4B	bags	.	.	.	.	.	.
8B]	_	.	.	.	.	.	.
8B	may	.	.	.	.	.	.
4.B	be	.	.	.	.	.	.
=93	=93	=93	=93	=93	=93	=93	=93
2c#	head-	1AM	.	voice	.	188.74	A:maj
8B	-ing	.	.	.	.	.	.
4.A	_	.	.	.	.	.	.
=94	=94	=94	=94	=94	=94	=94	=94
8A	south	1DM	.	voice	B	190.775	D:maj
4.F#	_	.	.	.	.	.	.
4r	.	.	.	.	.	.	.
8r	.	.	.	.	.	.	.
8E	I'm	.	.	.	.	.	.
=95	=95	=95	=95	=95	=95	=95	=95
8B	thir-	1AM	newline	voice	.	192.81	A:maj
4c#	-ty-	.	.	.	.	.	.
[8c#	-five	.	.	.	.	.	.
8c#]	_	.	.	.	.	.	.
4r	.	.	.	.	.	.	.
8E	we	.	.	.	.	.	.
=96	=96	=96	=96	=96	=96	=96	=96
8B	got	1AM	.	voice	.	194.832	A:maj
4c#	a	.	.	.	.	.	.
[8c#	boy	.	.	.	.	.	.
8c#]	_	.	.	.	.	.	.
4r	.	.	.	.	.	.	.
8c#	of	.	.	.	.	.	.
=97	=97	=97	=97	=97	=97	=97	=97
2d	our	2DM	.	voice	.	196.855	D:maj
8c#	own	2AM	.	voice	.	197.866	A:maj
4.B	_	.	.	.	.	.	.
=98	=98	=98	=98	=98	=98	=98	=98
4B	now	1EM	.	voice	B	198.877	E:maj
4r	.	.	.	.	.	.	.
8r	.	.	.	.	.	.	.
8E	Last	.	.	.	.	.	.
8E	night	.	.	.	.	.	.
8E	I	.	.	.	.	.	.
=99	=99	=99	=99	=99	=99	=99	=99
8A	sat	1EM	newline	voice	.	200.899	E:maj
4B	him	.	.	.	.	.	.
[8B	_	.	.	.	.	.	.
8B]	_	.	.	.	.	.	.
4r	.	.	.	.	.	.	.
8E	be-	.	.	.	.	.	.
=100	=100	=100	=100	=100	=100	=100	=100
8A	-hind	1EM	.	voice	.	202.931	E:maj
4B	the	.	.	.	.	.	.
[8B	wheel	.	.	.	.	.	.
8B]	_	.	.	.	.	.	.
8B	and	.	.	.	.	.	.
4B	said	.	.	.	.	.	.
=101	=101	=101	=101	=101	=101	=101	=101
4c#	\\\"Son	1AM	.	voice	.	204.962	A:maj
8c#	take	.	.	.	.	.	.
8c#	a	.	.	.	.	.	.
8B	good	.	.	.	.	.	.
4A	look	.	.	.	.	.	.
8A	a-	.	.	.	.	.	.
=102	=102	=102	=102	=102	=102	=102	=102
8A	-round	1DM	.	voice	B	206.994	D:maj
4.F#	_	.	.	.	.	.	.
2r	.	.	.	.	.	.	.
=103	=103	=103	=103	=103	=103	=103	=103
2r	.	1DM	.	voice	.	209.026	D:maj
4r	.	.	.	.	.	.	.
8r	.	.	.	.	.	.	.
16AA	This	.	.	.	.	.	.
16AA	is	.	.	.	.	.	.
=104	=104	=104	=104	=104	=104	=104	=104
*>Letter>A	*>Letter>A	*>Letter>A	*>Letter>A	*>Letter>A	*>Letter>A	*>Letter>A	*>Letter>A
*>Label>Instrumental	*>Label>Instrumental	*>Label>Instrumental	*>Label>Instrumental	*>Label>Instrumental	*>Label>Instrumental	*>Label>Instrumental	*>Label>Instrumental
8C#	your	1AM	newline	synthesizer	.	211.058	A:maj
4E	home-	.	.	.	.	.	.
[8E	-town	.	.	.	B	.	.
2E]	_	.	.	.	.	.	.
=105	=105	=105	=105	=105	=105	=105	=105
1r	.	1AM	.	synthesizer	.	213.109	A:maj
=106	=106	=106	=106	=106	=106	=106	=106
1r	.	2DM	.	synthesizer	.	215.161	D:maj
.	.	2AM	.	synthesizer	.	216.187	A:maj
=107	=107	=107	=107	=107	=107	=107	=107
1r	.	1EM	.	synthesizer	.	217.213	E:maj
=108	=108	=108	=108	=108	=108	=108	=108
1r	.	1EM	newline	synthesizer	.	219.265	E:maj
=109	=109	=109	=109	=109	=109	=109	=109
1r	.	1EM	.	synthesizer	.	221.262	E:maj
=110	=110	=110	=110	=110	=110	=110	=110
1r	.	1AM	.	synthesizer	.	223.258	A:maj
=111	=111	=111	=111	=111	=111	=111	=111
1r	.	1DM	.	synthesizer	.	225.255	D:maj
=112	=112	=112	=112	=112	=112	=112	=112
*>Label>>Fadeout	*>Label>>Fadeout	*>Label>>Fadeout	*>Label>>Fadeout	*>Label>>Fadeout	*>Label>>Fadeout	*>Label>>Fadeout	*>Label>>Fadeout
1r	.	1AM	newline	synthesizer	.	227.252	A:maj
=113	=113	=113	=113	=113	=113	=113	=113
1r	.	1AM	.	synthesizer	.	229.255	A:maj
=114	=114	=114	=114	=114	=114	=114	=114
1r	.	2DM	.	synthesizer	.	231.258	D:maj
.	.	2AM	.	synthesizer	.	232.26	A:maj
=115	=115	=115	=115	=115	=115	=115	=115
1r	.	1EM	.	synthesizer	.	233.261	E:maj
=116	=116	=116	=116	=116	=116	=116	=116
1r	.	1EM	newline	synthesizer	.	235.264	E:maj
=117	=117	=117	=117	=117	=117	=117	=117
1r	.	1EM	.	synthesizer	.	237.267	E:maj
=118	=118	=118	=118	=118	=118	=118	=118
1r	.	1AM	.	synthesizer	.	239.269	A:maj
=119	=119	=119	=119	=119	=119	=119	=119
1r	.	1DM	.	synthesizer	.	241.272	D:maj
=120	=120	=120	=120	=120	=120	=120	=120
1r	.	1AM	newline	synthesizer	.	243.274	A:maj
=121	=121	=121	=121	=121	=121	=121	=121
1r	.	1AM	.	synthesizer	.	245.274	A:maj
=122	=122	=122	=122	=122	=122	=122	=122
1r	.	2DM	.	synthesizer	.	247.275	D:maj
.	.	2AM	.	synthesizer	.	248.275	A:maj
=123	=123	=123	=123	=123	=123	=123	=123
1r	.	1EM	.	synthesizer	.	249.275	E:maj
=124	=124	=124	=124	=124	=124	=124	=124
1r	.	1EM	newline	synthesizer	.	251.275	E:maj
=125	=125	=125	=125	=125	=125	=125	=125
1r	.	1EM	.	synthesizer	.	253.288	E:maj
=126	=126	=126	=126	=126	=126	=126	=126
1r	.	1AM	.	synthesizer	.	255.301	A:maj
=127	=127	=127	=127	=127	=127	=127	=127
1r	.	1DM	.	synthesizer	.	257.314	D:maj
=128	=128	=128	=128	=128	=128	=128	=128
1r	.	1AM	newline	synthesizer	.	259.327	A:maj
=129	=129	=129	=129	=129	=129	=129	=129
1r	.	1AM	.	synthesizer	.	260.781	A:maj
=130	=130	=130	=130	=130	=130	=130	=130
1r	.	2DM	.	synthesizer	.	262.235	D:maj
.	.	2AM	.	synthesizer	.	262.962	A:maj
=131	=131	=131	=131	=131	=131	=131	=131
1r	.	1EM	.	synthesizer	.	263.689	E:maj
=132	=132	=132	=132	=132	=132	=132	=132
1r	.	1EM	.	synthesizer	.	265.143	E:maj
=133	=133	=133	=133	=133	=133	=133	=133
1r	.	1EM	.	synthesizer	.	266.597	E:maj
r;	.	1r;	.	r	.	268.051	N.C.
r;	.	1r;	.	r	.	274.233	N.C.
*-	*-	*-	*-	*-	*-	*-	*-
!!!BillboardChartDate: 1985/12/14
!!!BillboardPeak: 6
!!!BillboardWeeksOnChart: 15
!!!COC: Bruce Springsteen
!!!ENC: Nathaniel Condit-Schultz
!!!EST: Awating manual error checking and editing.
!!!OTL: My Hometown
!!!RDF**chordsym: original McGill chord annotation + (implied pitch class set, with bass pitch in first position)
!!!RDF**harmony: **recip + pitch class of root + harmonic quality
!!!RDF**leadinstrument: original McGill primary instrumentation annotation
!!!RDF**phrase: newline = linebreak in original McGill transcription
!!!RDF**timestamp: McGill audio timestamp in seconds
!!!RDT: 2017/01/12/
!!!SampleActualRank: 44
!!!SampleID#: 1066
!!!SampleTargetRank: 44
